X: 39597
T: Telephone Tune, The
R: reel
M: 4/4
K: Amixolydian
|:e2ec efed|cABc A2F2|E~A3 EAAB|cABc (3BcB A2|
e2ec efed|cABc A2F2|E~A3 EAAB|1 cABc A2B/c/d:|2 cABc AGFG||
K: Dmaj
|:A2FA dedc|BAGB efed|cAce agec|defd AGFG|
ADFA dedc|BAGB efed|cAce agec|1 dfec d2FG:|2 dfec d2 B/c/d||

